img/usage/network.svg

<?xml version="1.0" encoding="UTF-8" standalone="no"?>
<!-- Created using Karbon, part of Calligra: http://www.calligra.org/karbon -->

<svg
   xmlns:dc="http://purl.org/dc/elements/1.1/"
   xmlns:cc="http://creativecommons.org/ns#"
   xmlns:rdf="http://www.w3.org/1999/02/22-rdf-syntax-ns#"
   xmlns:svg="http://www.w3.org/2000/svg"
   xmlns="http://www.w3.org/2000/svg"
   xmlns:xlink="http://www.w3.org/1999/xlink"
   xmlns:sodipodi="http://sodipodi.sourceforge.net/DTD/sodipodi-0.dtd"
   xmlns:inkscape="http://www.inkscape.org/namespaces/inkscape"
   width="64"
   height="64"
   id="svg3020"
   version="1.1"
   inkscape:version="0.48.4 r9939"
   sodipodi:docname="_.svg">
  <title
     id="title3557">_</title>
  <metadata
     id="metadata3037">
    <rdf:RDF>
      <cc:Work
         rdf:about="">
        <dc:format>image/svg+xml</dc:format>
        <dc:type
           rdf:resource="http://purl.org/dc/dcmitype/StillImage" />
        <cc:license
           rdf:resource="http://creativecommons.org/licenses/by-nc-sa/3.0/" />
        <dc:title>_</dc:title>
        <dc:creator>
          <cc:Agent>
            <dc:title>Christian Reiner</dc:title>
          </cc:Agent>
        </dc:creator>
        <dc:rights>
          <cc:Agent>
            <dc:title>Copyright 2012, Christian Reiner, Hamburg, Germany</dc:title>
          </cc:Agent>
        </dc:rights>
        <dc:publisher>
          <cc:Agent>
            <dc:title>Christian Reiner</dc:title>
          </cc:Agent>
        </dc:publisher>
        <dc:subject>
          <rdf:Bag>
            <rdf:li>_</rdf:li>
            <rdf:li>usage</rdf:li>
          </rdf:Bag>
        </dc:subject>
      </cc:Work>
      <cc:License
         rdf:about="http://creativecommons.org/licenses/by-nc-sa/3.0/">
        <cc:permits
           rdf:resource="http://creativecommons.org/ns#Reproduction" />
        <cc:permits
           rdf:resource="http://creativecommons.org/ns#Distribution" />
        <cc:requires
           rdf:resource="http://creativecommons.org/ns#Notice" />
        <cc:requires
           rdf:resource="http://creativecommons.org/ns#Attribution" />
        <cc:prohibits
           rdf:resource="http://creativecommons.org/ns#CommercialUse" />
        <cc:permits
           rdf:resource="http://creativecommons.org/ns#DerivativeWorks" />
        <cc:requires
           rdf:resource="http://creativecommons.org/ns#ShareAlike" />
      </cc:License>
    </rdf:RDF>
  </metadata>
  <sodipodi:namedview
     pagecolor="#ffffff"
     bordercolor="#666666"
     borderopacity="1"
     objecttolerance="10"
     gridtolerance="10"
     guidetolerance="10"
     inkscape:pageopacity="0"
     inkscape:pageshadow="2"
     inkscape:window-width="1920"
     inkscape:window-height="1114"
     id="namedview3035"
     showgrid="false"
     inkscape:zoom="7.9242462"
     inkscape:cx="-16.22726"
     inkscape:cy="30.437252"
     inkscape:window-x="-4"
     inkscape:window-y="-4"
     inkscape:window-maximized="1"
     inkscape:current-layer="svg3020" />
  <defs
     id="defs3022">
    <linearGradient
       id="gradient0"
       gradientTransform="matrix(0.935714,0,0,0.971429,-260.198,309.044)"
       gradientUnits="objectBoundingBox"
       x1="1.860629"
       y1="-2.2881174"
       x2="1.8891802"
       y2="-1.0919917"
       spreadMethod="pad">
      <stop
         stop-color="#edf4fd"
         offset="0"
         stop-opacity="0.52845044633"
         id="stop3025"
         style="stop-color:#eef4fd;stop-opacity:0.52845043;" />
      <stop
         stop-color="#175bb3"
         offset="1.00000000000"
         stop-opacity="0.00000000000"
         id="stop3027" />
    </linearGradient>
    <linearGradient
       inkscape:collect="always"
       xlink:href="#gradient0"
       id="linearGradient3787"
       gradientUnits="userSpaceOnUse"
       gradientTransform="scale(1.2307282,0.81252711)"
       spreadMethod="pad"
       x1="310.29999"
       y1="-381.5929"
       x2="315.06152"
       y2="-182.11314" />
    <radialGradient
       inkscape:collect="always"
       xlink:href="#gradient0"
       id="radialGradient6130"
       cx="31.997753"
       cy="21.222061"
       fx="31.997753"
       fy="21.222061"
       r="29.944143"
       gradientTransform="matrix(0.93444017,0,0,0.48806265,2.0977673,4.2611009)"
       gradientUnits="userSpaceOnUse" />
  </defs>
  <g
     id="text4182"
     transform="matrix(0.38466862,0,0,0.37986865,25.704051,11.607889)"
     style="fill:none" />
  <g
     id="g6132">
    <path
       style="fill:#000000"
       inkscape:connector-curvature="0"
       d="m 63.998188,32.00176 c 0,17.672471 -14.326473,31.99882 -31.999097,31.99882 C 14.326496,64.00058 -5.94477e-6,49.674231 -5.94477e-6,32.00176 -5.94477e-6,14.329318 14.326496,0.00293953 31.999091,0.00293953 c 17.672624,0 31.999097,14.32637847 31.999097,31.99882047 z"
       id="path4167" />
    <path
       style="fill:#000000"
       inkscape:connector-curvature="0"
       d="m 61.941058,32.400768 c 0,16.953474 -13.405476,30.696962 -29.94199,30.696962 -16.536487,0 -29.9419893,-13.743488 -29.9419893,-30.696962 0,-16.953447 13.4055023,-30.6969628 29.9419893,-30.6969628 16.536514,0 29.94199,13.7435158 29.94199,30.6969628 z"
       id="path4169" />
    <path
       style="fill:url(#radialGradient6130);fill-opacity:1"
       inkscape:connector-curvature="0"
       d="m 31.997694,0.0041785 c -15.452384,0 -27.980952,10.2944605 -27.980952,22.9858205 0,0.809537 0.05395,1.605267 0.1533662,2.393018 13.6507788,4.039268 34.5127478,6.982114 55.8085348,-2.285166 2.73e-4,-0.0358 0,-0.07161 0,-0.107852 0,-12.69136 -12.528648,-22.9858205 -27.980949,-22.9858205 z"
       id="path4171" />
  </g>
  <g
     id="g5152"
     style="fill:none"
     transform="matrix(0.35005401,0,0,0.35005401,11,11.999966)">
    <path
       id="path5092"
       transform="matrix(0.7132,0,0,0.7132,29.7461,0)"
       d="M 9.9163,0 C 4.4218,0 0,4.14395 0,9.293 l 0,35.4292 c 0,5.149 4.4218,9.2931 9.9163,9.2931 l 63.2342,0 c 5.4945,0 9.9163,-4.1441 9.9163,-9.2931 l 0,-35.4292 C 83.0668,4.14395 78.645,0 73.1505,0 z m 9.1132,8.14427 45.0079,0 c 5.4944,0 9.9163,4.14393 9.9163,9.29303 l 0,19.1405 c 0,5.1491 -4.4219,9.2931 -9.9163,9.2931 l -45.0079,0 c -5.4945,0 -9.9163,-4.144 -9.9163,-9.2931 l 0,-19.1405 c 0,-5.1491 4.4218,-9.29303 9.9163,-9.29303 z"
       inkscape:connector-curvature="0"
       style="fill:#eeeeee" />
    <rect
       id="rect5098"
       transform="matrix(0.7132,0,0,0.7132,0,75.1881)"
       width="48.743835"
       height="37.665691"
       rx="14.021318"
       ry="14.021318"
       x="0"
       y="0"
       style="fill:#eeeeee" />
    <rect
       id="rect5114"
       transform="matrix(0.7132,0,0,0.7132,86.1201,75.9782)"
       width="48.743835"
       height="37.665691"
       rx="14.021318"
       ry="14.021318"
       x="0"
       y="0"
       style="fill:#eeeeee" />
    <rect
       id="rect5116"
       transform="matrix(0.7132,0,0,0.7132,42.665,75.9782)"
       width="48.743835"
       height="37.665691"
       rx="14.021318"
       ry="14.021318"
       x="0"
       y="0"
       style="fill:#eeeeee" />
    <g
       id="g5138"
       transform="translate(8.18351,44.967)"
       style="fill:none">
      <rect
         id="rect5126"
         transform="matrix(0.7132,0,0,0.7132,48.3081,0)"
         width="9.1394691"
         height="37.388741"
         x="0"
         y="0"
         style="fill:#eeeeee" />
      <rect
         id="rect5128"
         transform="matrix(0.7132,0,0,0.7132,91.8912,8.69104)"
         width="9.4164228"
         height="25.20278"
         x="0"
         y="0"
         style="fill:#eeeeee" />
      <rect
         id="rect5134"
         transform="matrix(0.7132,0,0,0.7132,0,8.69104)"
         width="9.4164228"
         height="25.20278"
         x="0"
         y="0"
         style="fill:#eeeeee" />
      <rect
         id="rect5136"
         transform="matrix(0.7132,0,0,0.7132,0,8.69104)"
         width="138.26007"
         height="10.770968"
         x="0"
         y="0"
         style="fill:#eeeeee" />
    </g>
    <rect
       id="rect5144"
       transform="matrix(0.7132,0,0,0.7132,42.2636,10.4152)"
       width="49.546452"
       height="5.2875662"
       x="0"
       y="0"
       style="fill:#eeeeee" />
    <rect
       id="rect5146"
       transform="matrix(0.7132,0,0,0.7132,42.2636,10.4152)"
       width="49.546452"
       height="5.2875662"
       x="0"
       y="0"
       style="fill:#eeeeee" />
    <rect
       id="rect5148"
       transform="matrix(0.7132,0,0,0.7132,42.2636,17.5472)"
       width="49.546452"
       height="5.2875662"
       x="0"
       y="0"
       style="fill:#eeeeee" />
    <rect
       id="rect5150"
       transform="matrix(0.7132,0,0,0.7132,42.2636,24.6792)"
       width="49.546452"
       height="5.2875662"
       x="0"
       y="0"
       style="fill:#eeeeee" />
  </g>
</svg>

<?xml version="1.0" encoding="UTF-8" standalone="no"?>
<!-- Created using Karbon, part of Calligra: http://www.calligra.org/karbon -->

<svg
   xmlns:dc="http://purl.org/dc/elements/1.1/"
   xmlns:cc="http://creativecommons.org/ns#"
   xmlns:rdf="http://www.w3.org/1999/02/22-rdf-syntax-ns#"
   xmlns:svg="http://www.w3.org/2000/svg"
   xmlns="http://www.w3.org/2000/svg"
   xmlns:sodipodi="http://sodipodi.sourceforge.net/DTD/sodipodi-0.dtd"
   xmlns:inkscape="http://www.inkscape.org/namespaces/inkscape"
   width="133.098pt"
   height="134.778pt"
   id="svg3194"
   version="1.1"
   inkscape:version="0.48.3.1 r9886"
   sodipodi:docname="network.svg">
  <title
     id="title3541">network</title>
  <metadata
     id="metadata3224">
    <rdf:RDF>
      <cc:Work
         rdf:about="">
        <dc:format>image/svg+xml</dc:format>
        <dc:type
           rdf:resource="http://purl.org/dc/dcmitype/StillImage" />
        <cc:license
           rdf:resource="http://creativecommons.org/licenses/by-nc-sa/3.0/" />
        <dc:title>network</dc:title>
        <dc:creator>
          <cc:Agent>
            <dc:title>Christian Reiner</dc:title>
          </cc:Agent>
        </dc:creator>
        <dc:rights>
          <cc:Agent>
            <dc:title>Copyright 2012, Christian Reiner, Hamburg, Germany</dc:title>
          </cc:Agent>
        </dc:rights>
        <dc:publisher>
          <cc:Agent>
            <dc:title>Christian Reiner</dc:title>
          </cc:Agent>
        </dc:publisher>
        <dc:subject>
          <rdf:Bag>
            <rdf:li>network</rdf:li>
            <rdf:li>usage</rdf:li>
          </rdf:Bag>
        </dc:subject>
      </cc:Work>
      <cc:License
         rdf:about="http://creativecommons.org/licenses/by-nc-sa/3.0/">
        <cc:permits
           rdf:resource="http://creativecommons.org/ns#Reproduction" />
        <cc:permits
           rdf:resource="http://creativecommons.org/ns#Distribution" />
        <cc:requires
           rdf:resource="http://creativecommons.org/ns#Notice" />
        <cc:requires
           rdf:resource="http://creativecommons.org/ns#Attribution" />
        <cc:prohibits
           rdf:resource="http://creativecommons.org/ns#CommercialUse" />
        <cc:permits
           rdf:resource="http://creativecommons.org/ns#DerivativeWorks" />
        <cc:requires
           rdf:resource="http://creativecommons.org/ns#ShareAlike" />
      </cc:License>
    </rdf:RDF>
  </metadata>
  <sodipodi:namedview
     pagecolor="#ffffff"
     bordercolor="#666666"
     borderopacity="1"
     objecttolerance="10"
     gridtolerance="10"
     guidetolerance="10"
     inkscape:pageopacity="0"
     inkscape:pageshadow="2"
     inkscape:window-width="1920"
     inkscape:window-height="1114"
     id="namedview3222"
     showgrid="false"
     inkscape:zoom="1.4008221"
     inkscape:cx="-57.802385"
     inkscape:cy="84.236252"
     inkscape:window-x="-4"
     inkscape:window-y="-4"
     inkscape:window-maximized="1"
     inkscape:current-layer="svg3194" />
  <defs
     id="defs3196">
    <linearGradient
       id="gradient0"
       gradientTransform="matrix(0.935714 0 0 0.971429 -260.198 309.044)"
       gradientUnits="objectBoundingBox"
       x1="1.86062886879"
       y1="-2.28811738018"
       x2="1.88918005155"
       y2="-1.09199169808"
       spreadMethod="pad">
      <stop
         stop-color="#edf4fd"
         offset="0.00000000000"
         stop-opacity="0.52845044633"
         id="stop3199" />
      <stop
         stop-color="#175bb3"
         offset="1.00000000000"
         stop-opacity="0.00000000000"
         id="stop3201" />
    </linearGradient>
  </defs>
  <g
     id="layer1">
    <g
       id="g5449"
       transform="translate(-8.40215e-06, -2.8318e-06)"
       fill="none">
      <path
         id="path5051"
         transform="matrix(0.758527 0 0 0.768105 1.05879e-21 0)"
         fill="#000000"
         d="M219.336 109.668C219.336 170.236 170.236 219.336 109.668 219.336C49.1001 219.336 0 170.236 0 109.668C0 49.1001 49.1001 0 109.668 0C170.236 0 219.336 49.1001 219.336 109.668Z" />
      <path
         id="path5053"
         transform="matrix(0.709764 0 0 0.736855 5.34768 4.47751)"
         fill="#000000"
         d="M219.336 109.668C219.336 170.236 170.236 219.336 109.668 219.336C49.1001 219.336 0 170.236 0 109.668C0 49.1001 49.1001 0 109.668 0C170.236 0 219.336 49.1001 219.336 109.668Z" />
      <g
         id="g5152"
         transform="translate(24.1282, 25.4609)"
         fill="none">
        <path
           id="path5092"
           transform="matrix(0.7132 0 0 0.7132 29.7461 0)"
           fill="#eeeeee"
           d="M9.9163 0C4.4218 0 0 4.14395 0 9.293L0 44.7222C0 49.8712 4.4218 54.0153 9.9163 54.0153L73.1505 54.0153C78.645 54.0153 83.0668 49.8712 83.0668 44.7222L83.0668 9.293C83.0668 4.14395 78.645 0 73.1505 0ZM19.0295 8.14427L64.0374 8.14427C69.5318 8.14427 73.9537 12.2882 73.9537 17.4373L73.9537 36.5778C73.9537 41.7269 69.5318 45.8709 64.0374 45.8709L19.0295 45.8709C13.535 45.8709 9.1132 41.7269 9.1132 36.5778L9.1132 17.4373C9.1132 12.2882 13.535 8.14427 19.0295 8.14427Z" />
        <rect
           id="rect5098"
           transform="matrix(0.7132 0 0 0.7132 0 75.1881)"
           fill="#eeeeee"
           width="38.99506800000pt"
           height="30.13255280000pt"
           rx="11.21705440000pt"
           ry="11.21705440000pt" />
        <rect
           id="rect5114"
           transform="matrix(0.7132 0 0 0.7132 86.1201 75.9782)"
           fill="#eeeeee"
           width="38.99506800000pt"
           height="30.13255280000pt"
           rx="11.21705440000pt"
           ry="11.21705440000pt" />
        <rect
           id="rect5116"
           transform="matrix(0.7132 0 0 0.7132 42.665 75.9782)"
           fill="#eeeeee"
           width="38.99506800000pt"
           height="30.13255280000pt"
           rx="11.21705440000pt"
           ry="11.21705440000pt" />
        <g
           id="g5138"
           transform="translate(8.18351, 44.967)"
           fill="none">
          <rect
             id="rect5126"
             transform="matrix(0.7132 0 0 0.7132 48.3081 8.88178e-15)"
             fill="#eeeeee"
             width="7.31157528000pt"
             height="29.91099280000pt" />
          <rect
             id="rect5128"
             transform="matrix(0.7132 0 0 0.7132 91.8912 8.69104)"
             fill="#eeeeee"
             width="7.53313824000pt"
             height="20.16222400000pt" />
          <rect
             id="rect5134"
             transform="matrix(0.7132 0 0 0.7132 0 8.69104)"
             fill="#eeeeee"
             width="7.53313824000pt"
             height="20.16222400000pt" />
          <rect
             id="rect5136"
             transform="matrix(0.7132 0 0 0.7132 -8.88178e-15 8.69104)"
             fill="#eeeeee"
             width="110.60805600000pt"
             height="8.61677440000pt" />
        </g>
        <rect
           id="rect5144"
           transform="matrix(0.7132 0 0 0.7132 42.2636 10.4152)"
           fill="#eeeeee"
           width="39.63716160000pt"
           height="4.23005296000pt" />
        <rect
           id="rect5146"
           transform="matrix(0.7132 0 0 0.7132 42.2636 10.4152)"
           fill="#eeeeee"
           width="39.63716160000pt"
           height="4.23005296000pt" />
        <rect
           id="rect5148"
           transform="matrix(0.7132 0 0 0.7132 42.2636 17.5472)"
           fill="#eeeeee"
           width="39.63716160000pt"
           height="4.23005296000pt" />
        <rect
           id="rect5150"
           transform="matrix(0.7132 0 0 0.7132 42.2636 24.6792)"
           fill="#eeeeee"
           width="39.63716160000pt"
           height="4.23005296000pt" />
      </g>
      <path
         id="path5055"
         transform="matrix(0.758527 0 0 0.758527 5.33866 4.46647)"
         fill="url(#gradient0)"
         d="M102.625 0C45.9507 0 0 47.725 0 106.562C0 110.315 0.1979 114.004 0.5625 117.656C50.6291 136.382 127.144 150.025 205.25 107.062C205.251 106.896 205.25 106.73 205.25 106.562C205.25 47.725 159.299 0 102.625 0Z" />
    </g>
  </g>
</svg>
